styles/icons/metadata-inspect.svg

<?xml version="1.0" encoding="UTF-8"?>
<svg width="24px" height="24px" viewBox="0 0 24 24" version="1.1" xmlns="http://www.w3.org/2000/svg" xmlns:xlink="http://www.w3.org/1999/xlink">
    <!-- Generator: Sketch 47.1 (45422) - http://www.bohemiancoding.com/sketch -->
    <title>Icon/tool/metadata-inspect</title>
    <desc>Created with Sketch.</desc>
    <defs></defs>
    <g id="2.-Core" stroke="none" stroke-width="1" fill="none" fill-rule="evenodd">
        <g id="Core/Icons" transform="translate(-780.000000, -920.000000)" fill="#333333">
            <g id="Layer-Tools" transform="translate(700.000000, 880.000000)">
                <g id="Icon/tool/metadata-inspect-a01" transform="translate(80.000000, 40.000000)">
                    <path d="M5.288,13.3607143 C5.288,12.9535714 4.97333333,12.5235714 4,12.5 L4,11.5007143 C4.97333333,11.4771429 5.288,11.0464286 5.288,10.64 C5.288,9.91857143 5.13866667,9.465 5.13866667,8.65142857 C5.13866667,7.40785714 5.73777778,7 7.056,7 L8,7 L8,7.90785714 L7.71466667,7.90785714 C7.10133333,7.90785714 6.92088889,8.08214286 6.92088889,8.72142857 C6.92088889,9.33785714 6.98133333,9.93071429 6.98133333,10.6171429 C6.98133333,11.5007143 6.62133333,11.8378571 5.87288889,11.9771429 L5.87288889,12.0235714 C6.62133333,12.1635714 6.98133333,12.5 6.98133333,13.3842857 C6.98133333,14.0935714 6.92088889,14.6514286 6.92088889,15.28 C6.92088889,15.9192857 7.10133333,16.0935714 7.71466667,16.0935714 L8,16.0935714 L8,17 L7.056,17 C5.73777778,17 5.13866667,16.605 5.13866667,15.3492857 C5.13866667,14.5235714 5.288,14.0935714 5.288,13.3607143 Z M16.2844444,16.0928571 C16.9137778,16.0928571 17.0782222,15.9185714 17.0782222,15.2792857 C17.0782222,14.6507143 17.0186667,14.0935714 17.0186667,13.3835714 C17.0186667,12.5 17.3777778,12.1628571 18.1271111,12.0228571 L18.1271111,11.9771429 C17.3777778,11.8371429 17.0186667,11.5 17.0186667,10.6164286 C17.0186667,9.93071429 17.0782222,9.33714286 17.0782222,8.72071429 C17.0782222,8.08142857 16.9137778,7.90714286 16.2844444,7.90714286 L16,7.90714286 L16,7 L16.9431111,7 C18.2622222,7 18.8604444,7.40714286 18.8604444,8.65142857 C18.8604444,9.465 18.7111111,9.91785714 18.7111111,10.64 C18.7111111,11.0464286 19.0257778,11.4771429 20,11.5 L20,12.5 C19.0257778,12.5228571 18.7111111,12.9528571 18.7111111,13.36 C18.7111111,14.0935714 18.8604444,14.5228571 18.8604444,15.3485714 C18.8604444,16.6042857 18.2622222,17 16.9431111,17 L16,17 L16,16.0928571 L16.2844444,16.0928571 Z M16.2498,14.0002 C16.2498,14.6910333 15.6906333,15.2502 14.9998,15.2502 C14.3089667,15.2502 13.7498,14.6910333 13.7498,14.0002 C13.7498,13.3093667 14.3089667,12.7502 14.9998,12.7502 C15.6906333,12.7502 16.2498,13.3093667 16.2498,14.0002 Z M13.2498,14.0002 C13.2498,14.6910333 12.6906333,15.2502 11.9998,15.2502 C11.3089667,15.2502 10.7498,14.6910333 10.7498,14.0002 C10.7498,13.3093667 11.3089667,12.7502 11.9998,12.7502 C12.6906333,12.7502 13.2498,13.3093667 13.2498,14.0002 Z M10.2498,14.0002 C10.2498,14.6910333 9.69063333,15.2502 8.9998,15.2502 C8.30896667,15.2502 7.7498,14.6910333 7.7498,14.0002 C7.7498,13.3093667 8.30896667,12.7502 8.9998,12.7502 C9.69063333,12.7502 10.2498,13.3093667 10.2498,14.0002 Z M11.6711134,19 L20,19 C20.5522847,19 21,18.5522847 21,18 L21,6 C21,5.44771525 20.5522847,5 20,5 L4,5 C3.44771525,5 3,5.44771525 3,6 L3,18 C3,18.5522847 3.44771525,19 4,19 L6.41710091,19 L9.05576029,21.6647736 L11.6711134,19 Z M4,4 L20,4 C21.1045695,4 22,4.8954305 22,6 L22,18 C22,19.1045695 21.1045695,20 20,20 L12.0908203,20 L9.05891927,23.0891927 L6,20 L4,20 C2.8954305,20 2,19.1045695 2,18 L2,6 C2,4.8954305 2.8954305,4 4,4 Z" id="Icon"></path>
                </g>
            </g>
        </g>
    </g>
</svg>

<svg fill="#333333" width="24" height="24" viewBox="0 0 24 24" xmlns="http://www.w3.org/2000/svg">
    <path d="M5.3,13.4C5.3,13,5,12.5,4,12.5v-1c1,0,1.3-0.5,1.3-0.9c0-0.7-0.1-1.2-0.1-2C5.1,7.4,5.7,7,7.1,7H8v0.9H7.7c-0.6,0-0.8,0.2-0.8,0.8C6.9,9.3,7,9.9,7,10.6c0,0.9-0.4,1.2-1.1,1.4v0C6.6,12.2,7,12.5,7,13.4c0,0.7-0.1,1.3-0.1,1.9c0,0.6,0.2,0.8,0.8,0.8H8V17H7.1c-1.3,0-1.9-0.4-1.9-1.7C5.1,14.5,5.3,14.1,5.3,13.4z M16.3,16.1c0.6,0,0.8-0.2,0.8-0.8c0-0.6-0.1-1.2-0.1-1.9c0-0.9,0.4-1.2,1.1-1.4v0c-0.7-0.1-1.1-0.5-1.1-1.4c0-0.7,0.1-1.3,0.1-1.9c0-0.6-0.2-0.8-0.8-0.8H16V7h0.9c1.3,0,1.9,0.4,1.9,1.7c0,0.8-0.1,1.3-0.1,2c0,0.4,0.3,0.8,1.3,0.9v1c-1,0-1.3,0.5-1.3,0.9c0,0.7,0.1,1.2,0.1,2c0,1.3-0.6,1.7-1.9,1.7H16v-0.9H16.3z M16.2,14c0,0.7-0.6,1.2-1.2,1.2c-0.7,0-1.2-0.6-1.2-1.2c0-0.7,0.6-1.2,1.2-1.2C15.7,12.8,16.2,13.3,16.2,14z M13.2,14c0,0.7-0.6,1.2-1.2,1.2c-0.7,0-1.2-0.6-1.2-1.2c0-0.7,0.6-1.2,1.2-1.2C12.7,12.8,13.2,13.3,13.2,14z M10.2,14c0,0.7-0.6,1.2-1.2,1.2c-0.7,0-1.2-0.6-1.2-1.2c0-0.7,0.6-1.2,1.2-1.2C9.7,12.8,10.2,13.3,10.2,14z M11.7,19H20c0.6,0,1-0.4,1-1V6c0-0.6-0.4-1-1-1H4C3.4,5,3,5.4,3,6v12c0,0.6,0.4,1,1,1h2.4l2.6,2.7L11.7,19z M4,4h16c1.1,0,2,0.9,2,2v12c0,1.1-0.9,2-2,2h-7.9l-3,3.1L6,20H4c-1.1,0-2-0.9-2-2V6C2,4.9,2.9,4,4,4z"/>
</svg>
